X: 35822
T: Saltón De Candamu
R: polka
M: 2/4
K: Dmajor
dc AF|D2 DF|EF/E/ DE|FB ~B2|
dc AF|D2 FD|ED CE|1 DE FA:|2 DE FD||
|:E2 EA|FB ~B2|dc AF|FE ~E2|
[1 DE EA|FB AF|ED CE|DE FD:|
[2 EAFE|FB AF|ED CE|D4||

